X: 29458
T: Night Of The Feast, The
R: reel
M: 4/4
K: Gmajor
|:(3efg dB G2 GA|BGAG EGGE|DB,DE GBdB|AdBG AGEg|
(3efg dBG2 GA|BGAG EGGE|DB,DE GBdB|AGAB G2Bd:|
|:(3efe dB dGGA|BGAG EGGg|(3efe dB dGGA|BGdB A2 Bd|
e3 B d2 GA|BGAG EGGE|DB,DE GBdB|AGAB G2 Bd:|

